Newaita-dark/apps/32/libreoffice-main.svg

<svg height="32" viewBox="0 0 32 32" width="32" xmlns="http://www.w3.org/2000/svg" xmlns:xlink="http://www.w3.org/1999/xlink"><linearGradient id="a" gradientTransform="matrix(.0744119 0 0 .062506 -2.630336 13.438785)" gradientUnits="userSpaceOnUse" x1="254" x2="254" y1="233.5" y2="254.666672"><stop offset="0" stop-opacity=".27451"/><stop offset="1" stop-opacity="0"/></linearGradient><linearGradient id="b"><stop offset="0" stop-opacity=".313726"/><stop offset=".222222" stop-opacity=".27451"/><stop offset="1" stop-opacity="0"/></linearGradient><radialGradient id="c" cx="450.908936" cy="189.579361" gradientTransform="matrix(.00000017 -.0781325 -.140638 -.0000001 50.476849 63.595333)" gradientUnits="userSpaceOnUse" r="21.166656" xlink:href="#b"/><radialGradient id="d" cx="450.908936" cy="189.579361" gradientTransform="matrix(-.00000017 .0781325 .140638 .0000001 -18.723815 -7.527479)" gradientUnits="userSpaceOnUse" r="21.166656" xlink:href="#b"/><radialGradient id="e" cx="450.908936" cy="189.579361" gradientTransform="matrix(-.00000017 -.0781325 .140638 -.0000001 -18.723815 63.595333)" gradientUnits="userSpaceOnUse" r="21.166656" xlink:href="#b"/><radialGradient id="f" cx="450.908936" cy="189.579361" gradientTransform="matrix(.00000017 .0781325 -.140638 .0000001 50.476847 -7.527479)" gradientUnits="userSpaceOnUse" r="21.166656" xlink:href="#b"/><linearGradient id="g"><stop offset="0" stop-color="#424242"/><stop offset="1" stop-color="#616161"/></linearGradient><linearGradient id="h" gradientUnits="userSpaceOnUse" x1="15.87648" x2="15.87648" xlink:href="#g" y1="28.03386419623" y2="2.89610343548"/><linearGradient id="i" gradientUnits="userSpaceOnUse" x1="15.87648" x2="15.87648" y1="26.71082419623" y2="4.21914343548"><stop offset="0" stop-color="#e0e0e0"/><stop offset="1" stop-color="#eee"/></linearGradient><linearGradient id="j" gradientUnits="userSpaceOnUse" x1="15.87652374997" x2="15.87652374997" xlink:href="#g" y1="28.03392875006" y2="2.89609968762"/><path d="m7.609375 28.035156h16.535156v1.320313h-16.535156zm0 0" fill="url(#a)"/><path d="m24.144531 28.035156h2.648438v-1.324218h-2.648438zm0 0" fill="url(#c)"/><path d="m7.609375 28.035156h-2.648437v1.320313h2.648437zm0 0" fill="url(#d)"/><path d="m7.609375 28.035156h-2.648437v-1.324218h2.648437zm0 0" fill="url(#e)"/><path d="m24.144531 28.035156h2.648438v1.320313h-2.648438zm0 0" fill="url(#f)"/><path d="m6.613281 2.894531c-.730469 0-1.320312.589844-1.320312 1.324219v22.492188c0 .734374.589843 1.324218 1.320312 1.324218h18.523438c.734375 0 1.324219-.589844 1.324219-1.324218v-15.054688l-8.761719-8.761719zm13.894531 0 5.953126 5.957031v-4.632812c0-.734375-.589844-1.324219-1.324219-1.324219zm0 0" fill="url(#h)"/><path d="m7.277344 4.21875c-.367188 0-.664063.296875-.664063.660156v21.171875c0 .363281.296875.660157.664063.660157h17.199218c.367188 0 .660157-.296876.660157-.660157v-13.894531l-7.9375-7.9375zm0 0" fill="url(#i)"/><path d="m11.90625 10.171875c-.367188 0-.660156.296875-.660156.664063v9.257812c0 .367188.292968.664062.660156.664062h7.9375c.367188 0 .664062-.296874.664062-.664062v-6.714844l-3.476562-3.207031zm6.230469 0 2.371093 2.1875v-1.523437c0-.367188-.296874-.664063-.664062-.664063zm0 0" fill="url(#j)"/><path d="m11.90625 10.171875c-.367188 0-.660156.296875-.660156.664063v.328124c0-.367187.292968-.660156.660156-.660156h5.125l3.476562 3.207032v-.332032l-3.476562-3.207031zm6.230469 0 .359375.332031h1.347656c.367188 0 .664062.292969.664062.660156v-.328124c0-.367188-.296874-.664063-.664062-.664063zm0 0" fill="#fff" fill-opacity=".392157"/><path d="m18.136719 10.667969 2.371093 2.1875v-.496094l-1.832031-1.691406zm-6.890625 9.425781v.5c0 .363281.292968.660156.660156.660156h7.9375c.367188 0 .664062-.296875.664062-.660156v-.5c0 .367188-.296874.664062-.664062.664062h-7.9375c-.367188 0-.660156-.296874-.660156-.664062zm0 0" fill-opacity=".235294"/><path d="m719.931288 615.059407c-22.202605 0-39.91745 17.951043-39.91745 40.153648v559.789092c0 22.202606 17.714845 40.153648 39.91745 40.153648h479.954192c22.202605 0 40.153648-17.951042 40.153648-40.153648v-406.02424l-210.216157-193.9185zm376.735697 0 143.372143 132.270841v-92.117193c0-22.202605-17.951043-40.153648-40.153648-40.153648zm0 0" fill="none" stroke="#212121" stroke-linecap="round" stroke-linejoin="round" stroke-width="11.338583" transform="scale(.016538)"/><path d="m6.613281 2.894531c-.730469 0-1.320312.589844-1.320312 1.324219v.332031c0-.734375.589843-1.324219 1.320312-1.324219h11.085938l8.761719 8.761719v-.332031l-8.761719-8.761719zm13.894531 0 .332032.332031h4.296875c.734375 0 1.324219.589844 1.324219 1.324219v-.332031c0-.734375-.589844-1.324219-1.324219-1.324219zm0 0" fill="#fff" fill-opacity=".392157"/><path d="m7.277344 4.21875c-.367188 0-.664063.296875-.664063.660156v.496094c0-.363281.296875-.660156.664063-.660156h9.921875l7.9375 7.9375v-.496094l-7.9375-7.9375zm0 0" fill-opacity=".235294"/><path d="m6.613281 26.074219v.3125c0 .367187.296875.660156.664063.660156h17.199218c.367188 0 .660157-.292969.660157-.660156v-.3125c0 .367187-.292969.660156-.660157.660156h-17.199218c-.367188 0-.664063-.292969-.664063-.660156zm0 0" fill="#fff" fill-opacity=".392157"/><path d="m440.036742 255.093763c-22.202605 0-40.153648 17.951043-40.153648 39.91745v1280.192776c0 21.966407 17.951043 39.91745 40.153648 39.91745h1039.979482c22.202605 0 39.91745-17.951043 39.91745-39.91745v-840.156034l-479.954192-479.954192zm0 0" fill="none" stroke="#212121" stroke-linecap="round" stroke-linejoin="round" stroke-width="11.338583" transform="scale(.016538)"/><path d="m20.507812 2.894531 5.953126 5.957031v-.324218l-5.632813-5.632813zm-15.214843 23.492188v.324219c0 .734374.589843 1.324218 1.320312 1.324218h18.523438c.734375 0 1.324219-.589844 1.324219-1.324218v-.324219c0 .734375-.589844 1.324219-1.324219 1.324219h-18.523438c-.730469 0-1.320312-.589844-1.320312-1.324219zm0 0" fill-opacity=".235294"/><path d="m399.883094 175.022665c-44.169013 0-79.8349 35.665888-79.8349 80.071098v1360.027676c0 44.405211 35.665887 80.071098 79.8349 80.071098h1120.05058c44.40521 0 80.071098-35.665887 80.071098-80.071098v-910.306819l-529.791955-529.791955zm840.156034 0 359.965644 360.201842v-280.130744c0-44.40521-35.665888-80.071098-80.071098-80.071098zm0 0" fill="none" stroke="#212121" stroke-linecap="round" stroke-linejoin="round" stroke-width="11.338583" transform="scale(.016538)"/></svg>

<?xml version="1.0" encoding="UTF-8"?>
<svg xmlns="http://www.w3.org/2000/svg" xmlns:xlink="http://www.w3.org/1999/xlink" width="32px" height="32px" viewBox="0 0 32 32" version="1.1">
<defs>
<linearGradient id="linear0" gradientUnits="userSpaceOnUse" x1="254" y1="233.5" x2="254" y2="254.666672" gradientTransform="matrix(0.0744119,0,0,0.062506,-2.630336,13.438785)">
<stop offset="0" style="stop-color:rgb(0%,0%,0%);stop-opacity:0.27451;"/>
<stop offset="1" style="stop-color:rgb(0%,0%,0%);stop-opacity:0;"/>
</linearGradient>
<radialGradient id="radial0" gradientUnits="userSpaceOnUse" cx="450.908936" cy="189.579361" fx="450.908936" fy="189.579361" r="21.166656" gradientTransform="matrix(0.00000017417,-0.0781325,-0.140638,-0.000000101539,50.476849,63.595333)">
<stop offset="0" style="stop-color:rgb(0%,0%,0%);stop-opacity:0.313726;"/>
<stop offset="0.222222" style="stop-color:rgb(0%,0%,0%);stop-opacity:0.27451;"/>
<stop offset="1" style="stop-color:rgb(0%,0%,0%);stop-opacity:0;"/>
</radialGradient>
<radialGradient id="radial1" gradientUnits="userSpaceOnUse" cx="450.908936" cy="189.579361" fx="450.908936" fy="189.579361" r="21.166656" gradientTransform="matrix(-0.00000017417,0.0781325,0.140638,0.000000101539,-18.723815,-7.527479)">
<stop offset="0" style="stop-color:rgb(0%,0%,0%);stop-opacity:0.313726;"/>
<stop offset="0.222222" style="stop-color:rgb(0%,0%,0%);stop-opacity:0.27451;"/>
<stop offset="1" style="stop-color:rgb(0%,0%,0%);stop-opacity:0;"/>
</radialGradient>
<radialGradient id="radial2" gradientUnits="userSpaceOnUse" cx="450.908936" cy="189.579361" fx="450.908936" fy="189.579361" r="21.166656" gradientTransform="matrix(-0.00000017417,-0.0781325,0.140638,-0.000000101539,-18.723815,63.595333)">
<stop offset="0" style="stop-color:rgb(0%,0%,0%);stop-opacity:0.313726;"/>
<stop offset="0.222222" style="stop-color:rgb(0%,0%,0%);stop-opacity:0.27451;"/>
<stop offset="1" style="stop-color:rgb(0%,0%,0%);stop-opacity:0;"/>
</radialGradient>
<radialGradient id="radial3" gradientUnits="userSpaceOnUse" cx="450.908936" cy="189.579361" fx="450.908936" fy="189.579361" r="21.166656" gradientTransform="matrix(0.00000017417,0.0781325,-0.140638,0.000000101539,50.476847,-7.527479)">
<stop offset="0" style="stop-color:rgb(0%,0%,0%);stop-opacity:0.313726;"/>
<stop offset="0.222222" style="stop-color:rgb(0%,0%,0%);stop-opacity:0.27451;"/>
<stop offset="1" style="stop-color:rgb(0%,0%,0%);stop-opacity:0;"/>
</radialGradient>
<linearGradient id="linear1" gradientUnits="userSpaceOnUse" x1="254" y1="233.5" x2="254" y2="-168.666672" gradientTransform="matrix(0.062506,0,0,0.062506,0,13.438783)">
<stop offset="0" style="stop-color:rgb(87.843138%,87.843138%,87.843138%);stop-opacity:1;"/>
<stop offset="1" style="stop-color:rgb(93.333334%,93.333334%,93.333334%);stop-opacity:1;"/>
</linearGradient>
<linearGradient id="linear2" gradientUnits="userSpaceOnUse" x1="413.712219" y1="-474.701691" x2="413.712219" y2="-72.535034" gradientTransform="matrix(0.062506,0,0,0.062506,0,13.438783)">
<stop offset="0" style="stop-color:rgb(38.039216%,38.039216%,38.039216%);stop-opacity:1;"/>
<stop offset="1" style="stop-color:rgb(45.882353%,45.882353%,45.882353%);stop-opacity:1;"/>
</linearGradient>
<linearGradient id="linear3" gradientUnits="userSpaceOnUse" x1="248.708328" y1="101.208344" x2="248.708328" y2="-300.958313" gradientTransform="matrix(0.062506,0,0,0.062506,0.330761,21.7078)">
<stop offset="0" style="stop-color:rgb(38.039216%,38.039216%,38.039216%);stop-opacity:1;"/>
<stop offset="1" style="stop-color:rgb(45.882353%,45.882353%,45.882353%);stop-opacity:1;"/>
</linearGradient>
</defs>
<g id="surface1">
<path style=" stroke:none;fill-rule:nonzero;fill:url(#linear0);" d="M 7.609375 28.035156 L 24.144531 28.035156 L 24.144531 29.355469 L 7.609375 29.355469 Z M 7.609375 28.035156 "/>
<path style=" stroke:none;fill-rule:nonzero;fill:url(#radial0);" d="M 24.144531 28.035156 L 26.792969 28.035156 L 26.792969 26.710938 L 24.144531 26.710938 Z M 24.144531 28.035156 "/>
<path style=" stroke:none;fill-rule:nonzero;fill:url(#radial1);" d="M 7.609375 28.035156 L 4.960938 28.035156 L 4.960938 29.355469 L 7.609375 29.355469 Z M 7.609375 28.035156 "/>
<path style=" stroke:none;fill-rule:nonzero;fill:url(#radial2);" d="M 7.609375 28.035156 L 4.960938 28.035156 L 4.960938 26.710938 L 7.609375 26.710938 Z M 7.609375 28.035156 "/>
<path style=" stroke:none;fill-rule:nonzero;fill:url(#radial3);" d="M 24.144531 28.035156 L 26.792969 28.035156 L 26.792969 29.355469 L 24.144531 29.355469 Z M 24.144531 28.035156 "/>
<path style=" stroke:none;fill-rule:nonzero;fill:url(#linear1);" d="M 19.90625 2.894531 L 6.613281 2.894531 C 5.882812 2.894531 5.292969 3.484375 5.292969 4.21875 L 5.292969 26.710938 C 5.292969 27.445312 5.882812 28.035156 6.613281 28.035156 L 25.136719 28.035156 C 25.871094 28.035156 26.460938 27.445312 26.460938 26.710938 L 26.460938 8.90625 Z M 19.90625 2.894531 "/>
<path style=" stroke:none;fill-rule:nonzero;fill:url(#linear2);" d="M 19.90625 2.894531 L 26.460938 8.90625 L 26.460938 4.21875 C 26.460938 3.484375 25.871094 2.894531 25.136719 2.894531 Z M 19.90625 2.894531 "/>
<path style=" stroke:none;fill-rule:nonzero;fill:rgb(0%,0%,0%);fill-opacity:0.235294;" d="M 5.292969 26.378906 L 5.292969 26.710938 C 5.292969 27.445312 5.882812 28.035156 6.613281 28.035156 L 25.136719 28.035156 C 25.871094 28.035156 26.460938 27.445312 26.460938 26.710938 L 26.460938 26.378906 C 26.460938 27.113281 25.871094 27.703125 25.136719 27.703125 L 6.613281 27.703125 C 5.882812 27.703125 5.292969 27.113281 5.292969 26.378906 Z M 5.292969 26.378906 "/>
<path style=" stroke:none;fill-rule:nonzero;fill:rgb(100%,100%,100%);fill-opacity:1;" d="M 6.613281 2.894531 C 5.882812 2.894531 5.292969 3.484375 5.292969 4.21875 L 5.292969 4.878906 C 5.292969 4.148438 5.882812 3.558594 6.613281 3.558594 L 19.90625 3.558594 L 26.460938 9.566406 L 26.460938 8.90625 L 19.90625 2.894531 Z M 6.613281 2.894531 "/>
<path style=" stroke:none;fill-rule:nonzero;fill:rgb(100%,100%,100%);fill-opacity:0.392157;" d="M 19.90625 2.894531 L 20.628906 3.558594 L 25.136719 3.558594 C 25.871094 3.558594 26.460938 4.148438 26.460938 4.878906 L 26.460938 4.21875 C 26.460938 3.484375 25.871094 2.894531 25.136719 2.894531 Z M 19.90625 2.894531 "/>
<path style=" stroke:none;fill-rule:nonzero;fill:rgb(0%,0%,0%);fill-opacity:0.235294;" d="M 19.90625 2.894531 L 26.460938 8.90625 L 26.460938 8.355469 L 20.507812 2.894531 Z M 19.90625 2.894531 "/>
<path style="fill:none;stroke-width:11.338583;stroke-linecap:round;stroke-linejoin:round;stroke:rgb(12.941177%,12.941177%,12.941177%);stroke-opacity:1;stroke-miterlimit:4;" d="M 1203.664647 175.022665 L 399.883094 175.022665 C 355.714081 175.022665 320.048194 210.688553 320.048194 255.093763 L 320.048194 1615.121439 C 320.048194 1659.52665 355.714081 1695.192537 399.883094 1695.192537 L 1519.933674 1695.192537 C 1564.338884 1695.192537 1600.004772 1659.52665 1600.004772 1615.121439 L 1600.004772 538.531278 Z M 1203.664647 175.022665 " transform="matrix(0.016538,0,0,0.016538,0,0)"/>
<path style="fill:none;stroke-width:3;stroke-linecap:round;stroke-linejoin:round;stroke:rgb(12.941177%,12.941177%,12.941177%);stroke-opacity:1;stroke-miterlimit:4;" d="M 318.469588 -168.691922 L 423.334574 -72.513607 L 423.334574 -147.506445 C 423.334574 -159.255323 413.897975 -168.691922 402.149097 -168.691922 Z M 318.469588 -168.691922 " transform="matrix(0.062506,0,0,0.062506,0,13.438783)"/>
<path style=" stroke:none;fill-rule:nonzero;fill:url(#linear3);" d="M 11.90625 10.171875 C 11.539062 10.171875 11.246094 10.46875 11.246094 10.835938 L 11.246094 20.09375 C 11.246094 20.460938 11.539062 20.757812 11.90625 20.757812 L 19.84375 20.757812 C 20.210938 20.757812 20.507812 20.460938 20.507812 20.09375 L 20.507812 13.378906 L 17.03125 10.171875 Z M 18.136719 10.171875 L 20.507812 12.359375 L 20.507812 10.835938 C 20.507812 10.46875 20.210938 10.171875 19.84375 10.171875 Z M 18.136719 10.171875 "/>
<path style=" stroke:none;fill-rule:nonzero;fill:rgb(100%,100%,100%);fill-opacity:0.392157;" d="M 11.90625 10.171875 C 11.539062 10.171875 11.246094 10.46875 11.246094 10.835938 L 11.246094 11.164062 C 11.246094 10.796875 11.539062 10.503906 11.90625 10.503906 L 17.03125 10.503906 L 20.507812 13.710938 L 20.507812 13.378906 L 17.03125 10.171875 Z M 18.136719 10.171875 L 18.496094 10.503906 L 19.84375 10.503906 C 20.210938 10.503906 20.507812 10.796875 20.507812 11.164062 L 20.507812 10.835938 C 20.507812 10.46875 20.210938 10.171875 19.84375 10.171875 Z M 18.136719 10.171875 "/>
<path style=" stroke:none;fill-rule:nonzero;fill:rgb(0%,0%,0%);fill-opacity:0.235294;" d="M 18.136719 10.667969 L 20.507812 12.855469 L 20.507812 12.359375 L 18.675781 10.667969 Z M 11.246094 20.09375 L 11.246094 20.59375 C 11.246094 20.957031 11.539062 21.253906 11.90625 21.253906 L 19.84375 21.253906 C 20.210938 21.253906 20.507812 20.957031 20.507812 20.59375 L 20.507812 20.09375 C 20.507812 20.460938 20.210938 20.757812 19.84375 20.757812 L 11.90625 20.757812 C 11.539062 20.757812 11.246094 20.460938 11.246094 20.09375 Z M 11.246094 20.09375 "/>
<path style="fill:none;stroke-width:11.338583;stroke-linecap:round;stroke-linejoin:round;stroke:rgb(12.941177%,12.941177%,12.941177%);stroke-opacity:1;stroke-miterlimit:4;" d="M 719.931288 615.059407 C 697.728683 615.059407 680.013838 633.01045 680.013838 655.213055 L 680.013838 1215.002147 C 680.013838 1237.204753 697.728683 1255.155795 719.931288 1255.155795 L 1199.88548 1255.155795 C 1222.088085 1255.155795 1240.039128 1237.204753 1240.039128 1215.002147 L 1240.039128 808.977907 L 1029.822971 615.059407 Z M 1096.666985 615.059407 L 1240.039128 747.330248 L 1240.039128 655.213055 C 1240.039128 633.01045 1222.088085 615.059407 1199.88548 615.059407 Z M 1096.666985 615.059407 " transform="matrix(0.016538,0,0,0.016538,0,0)"/>
</g>
</svg>
